!!!OTL: 1510. Der Schiffbruch.
!!!ODT: 1807
!!!ARE: Europa, Mitteleuropa, Deutschland, Kuestrin
!!!SCT: E1510
!!!TXL: @@DE
!!!YEM: Copyright 1995, estate of Helmut Schaffrath.
**kern	**text
*ICvox	*
*M4/4	*
*met(c)	*
*k[f#]	*
*G:	*
!LO:TX:a:t=Etwas bewegt.	!
!LO:TX:a:t=Mel. aus Küſtrin 1807.	!
{4g	Jch
=1	=1
4dd	ſchif-
4dd	-ſe
8.ddL	auf
16bJ	.
8.ccL	der
16aJ	.
=2	=2
2g	See,
4r}	.
{4b/	mein
=3	=3
4a	Schiff
4cc	geht
8.bL	oh-
16gJ	.
8.ddL	-ne
16bJ	.
=4	=4
(4b/	Ruh.
4a)	.
4r}	.
{4g	Bald
=5	=5
4dd	treib
4dd	ich
8.ddL	in
16bJ	.
8.ccL	die
16aJ	.
=6	=6
2g	Höh
4r}	.
{4b/	und
=7	=7
4a	bald
4cc	dem
8.bL	Ab-
16gJ	.
8.ddL	-grund
16bJ	.
=8	=8
(4b/	ʒu.
4a)	.
4r	.
8r}	.
{8cc	Es
=9	=9
8b/L	ſauſt
8g	.
8ddJ	.
8b	der
4a	Wind,
8r}	.
{8cc	es
=10	=10
8b/L	brauſt
8g	.
8ddJ	.
8b	das
(8bqq	.
4a)	Meer,
8r}	.
{8cc	Es
=11	=11
8b/L	ſcheint
8g	.
8ddJ	.
8b	als
4a	wenn
8r}	.
{8cc	kein
=12	=12
8b/L	Ret-
8g	.
8ddJ	.
8b	-tung
(8bqq	.
4a)}	wär
{4ee	in
=13	=13
4ee	die-
4dd	-ſer,
4r}	.
{4cc	in
=14	=14
(8bL	die-
8dd	.
8ggJ)	.
8ee	-ſer
8.ddL	Leibs-
16bJ	.
8.ccL	-ge-
16aJ	.
=15	=15
2g	-fahr.
4r}	.
==	==
!!!AGN: Staende -, Seemanns - Lied, Schiffbruch
!!!ONB: ESAC (Essen Associative Code) Database: ERK3
!!!AMT: simple quadruple
!!!AIN: vox
!!!EED: Helmut Schaffrath
!!!EEV: 1.0
!!!GTL: Staendelieder (Berufslieder). 4. Seemanslieder.
!!!URL-scan: https://rosdok.uni-rostock.de/mcrviewer/recordIdentifier/rosdok_ppn745177999/iview2/phys_0360.iview2?x=-128.77276441889285&y=943.8027306785807&scale=0.5870222003877487&rotation=0&layout=singlePageLayout
!!!ENC: Anna Maria Matuszewska
!!!EEV: 2025/03/01
*-	*-
